src/icons/orders.icon.svg

<svg width="14" height="18" viewBox="0 0 24 24" xmlns="http://www.w3.org/2000/svg"><path d="M17 3H7c-1.1 0-1.99.9-1.99 2L5 21l7-3 7 3V5c0-1.1-.9-2-2-2zm0 15l-5-2.18L7 18V5h10v13z" fill="currentColor"/></svg>

<?xml version="1.0" encoding="UTF-8"?>
<svg width="14px" height="18px" viewBox="0 0 24 24" version="1.1" xmlns="http://www.w3.org/2000/svg" xmlns:xlink="http://www.w3.org/1999/xlink">
    <!-- Generator: Sketch 50.2 (55047) - http://www.bohemiancoding.com/sketch -->
    <title>IconOrders</title>
    <desc>Created with Sketch.</desc>
    <defs></defs>
    <path d="M17,3 L7,3 C5.9,3 5.01,3.9 5.01,5 L5,21 L12,18 L19,21 L19,5 C19,3.9 18.1,3 17,3 Z M17,18 L12,15.82 L7,18 L7,5 L17,5 L17,18 Z" id="Shape" fill="currentColor" fill-rule="nonzero"></path>
</svg>
